static/logos/twitter-glyph-color.svg

<svg width="58" height="47" viewBox="0 0 58 47" fill="none" xmlns="http://www.w3.org/2000/svg">
<g clip-path="url(#clip0_1_607)">
<path d="M58 5.5636C55.8662 6.50744 53.5726 7.14506 51.1658 7.43192C53.6224 5.96352 55.5095 3.63832 56.3977 0.867511C54.0983 2.22747 51.5518 3.21468 48.8412 3.74675C46.6708 1.44064 43.5783 0 40.1557 0C33.5843 0 28.2561 5.31231 28.2561 11.8649C28.2561 12.7948 28.3614 13.7005 28.5644 14.5689C18.6748 14.0741 9.9069 9.35026 4.03787 2.17165C3.01359 3.92401 2.42663 5.96208 2.42663 8.13663C2.42663 12.2532 4.52739 15.8849 7.72029 18.0126C5.76975 17.951 3.93492 17.4172 2.33063 16.5286C2.32928 16.578 2.32928 16.6278 2.32928 16.6778C2.32928 22.4265 6.43105 27.2217 11.8747 28.3125C10.8762 28.5837 9.82493 28.7286 8.73974 28.7286C7.97298 28.7286 7.22769 28.654 6.50095 28.5158C8.01533 33.2295 12.4097 36.6599 17.6169 36.7553C13.5445 39.9379 8.41379 41.8349 2.83853 41.8349C1.87804 41.8349 0.930903 41.7785 0 41.6689C5.26612 45.0357 11.5208 47 18.2407 47C40.1279 47 52.0971 28.9203 52.0971 13.2404C52.0971 12.726 52.0855 12.2145 52.0626 11.7052C54.3873 10.0327 56.4045 7.94316 57.9998 5.5636H58Z" fill="#2AA9E0"/>
</g>
<defs>
<clipPath id="clip0_1_607">
<rect width="58" height="47" fill="white"/>
</clipPath>
</defs>
</svg>

<svg xmlns="http://www.w3.org/2000/svg" width="78.979" height="64" fill="none" viewBox="0 0 58 47"><g clip-path="url(#a)"><path fill="#2AA9E0" d="M58 5.564a23.84 23.84 0 0 1-6.834 1.868A11.906 11.906 0 0 0 56.398.868a23.862 23.862 0 0 1-7.557 2.879A11.898 11.898 0 0 0 40.156 0c-6.572 0-11.9 5.312-11.9 11.865 0 .93.105 1.835.308 2.704-9.89-.495-18.657-5.219-24.526-12.397a11.783 11.783 0 0 0-1.611 5.965c0 4.116 2.1 7.748 5.293 9.876a11.878 11.878 0 0 1-5.39-1.484v.149c0 5.748 4.101 10.544 9.545 11.634a11.946 11.946 0 0 1-5.374.204 11.907 11.907 0 0 0 11.116 8.24 23.917 23.917 0 0 1-14.778 5.079c-.961 0-1.908-.056-2.839-.166A33.75 33.75 0 0 0 18.24 47c21.888 0 33.857-18.08 33.857-33.76 0-.514-.011-1.026-.034-1.535A24.134 24.134 0 0 0 58 5.564Z"/></g><defs><clipPath id="a"><path fill="#fff" d="M0 0h58v47H0z"/></clipPath></defs></svg>
